icon/lg/google-tag-manager.svg

<?xml version="1.0" encoding="UTF-8"?>
<svg viewBox="0 0 256 256" version="1.1" xmlns="http://www.w3.org/2000/svg" xmlns:xlink="http://www.w3.org/1999/xlink" preserveAspectRatio="xMidYMid" height="1em" width="1em">
  <g>
    <polygon fill="#8AB4F8" points="150.261818 245.516364 105.825455 202.185455 201.258182 104.730909 247.265455 149.821818"/>
    <path d="M150.450909,53.9381818 L106.174545,8.73090909 L9.36,104.629091 C-3.12,117.109091 -3.12,137.341818 9.36,149.836364 L104.72,245.821818 L149.810909,203.64 L77.1563636,127.232727 L150.450909,53.9381818 Z" fill="#4285F4"/>
    <path d="M246.625455,105.370909 L150.625455,9.37090909 C138.130909,-3.12363636 117.869091,-3.12363636 105.374545,9.37090909 C92.88,21.8654545 92.88,42.1272727 105.374545,54.6218182 L201.374545,150.621818 C213.869091,163.116364 234.130909,163.116364 246.625455,150.621818 C259.12,138.127273 259.12,117.865455 246.625455,105.370909 Z" fill="#8AB4F8"/>
    <circle fill="#246FDB" cx="127.265455" cy="224.730909" r="31.2727273"/>
  </g>
</svg>

<svg width="256" height="256" xmlns="http://www.w3.org/2000/svg" preserveAspectRatio="xMidYMid"><path fill="#8AB4F8" d="m150.262 245.516-44.437-43.33 95.433-97.455 46.007 45.09z"/><path d="M150.45 53.938 106.176 8.731 9.36 104.629c-12.48 12.48-12.48 32.713 0 45.207l95.36 95.986 45.09-42.182-72.654-76.407 73.295-73.295Z" fill="#4285F4"/><path d="m246.625 105.37-96-96c-12.494-12.494-32.756-12.494-45.25 0-12.495 12.495-12.495 32.757 0 45.252l96 96c12.494 12.494 32.756 12.494 45.25 0 12.495-12.495 12.495-32.757 0-45.251Z" fill="#8AB4F8"/><circle fill="#246FDB" cx="127.265" cy="224.731" r="31.273"/></svg>
